app/assets/fonts/icomoon.svg

<?xml version="1.0" standalone="no"?>
<!DOCTYPE svg PUBLIC "-//W3C//DTD SVG 1.1//EN" "http://www.w3.org/Graphics/SVG/1.1/DTD/svg11.dtd" >
<svg xmlns="http://www.w3.org/2000/svg">
<metadata>
<json>
{
	"fontFamily": "icomoon",
	"majorVersion": 1,
	"minorVersion": 0,
	"version": "Version 1.0",
	"fontId": "icomoon",
	"psName": "icomoon",
	"subFamily": "Regular",
	"fullName": "icomoon",
	"description": "Generated by IcoMoon"
}
</json>
</metadata>
<defs>
<font id="icomoon" horiz-adv-x="512">
<font-face units-per-em="512" ascent="480" descent="-32" />
<missing-glyph horiz-adv-x="512" />
<glyph unicode="&#x20;" d="" horiz-adv-x="256" />
<glyph unicode="&#xe600;" d="M256 435.2c-70.707 0-128-57.319-128-128 0-122.215 128-281.6 128-281.6s128 159.386 128 281.6c0 70.681-57.293 128-128 128zM256 236.544c-38.169 0-69.12 30.951-69.12 69.12s30.951 69.12 69.12 69.12 69.12-30.95 69.12-69.12-30.95-69.12-69.12-69.12z" />
<glyph unicode="&#xe601;" d="M437.020 405.019c48.351-48.352 74.98-112.64 74.98-181.020s-26.629-132.667-74.98-181.019c-48.353-48.351-112.64-74.98-181.020-74.98-68.38 0-132.667 26.629-181.020 74.98-48.351 48.352-74.98 112.639-74.98 181.019 0 68.38 26.627 132.668 74.98 181.020 48.353 48.352 112.64 74.981 181.020 74.981 68.38 0 132.667-26.629 181.020-74.981zM414.392 65.607c31.529 31.53 52.493 70.804 61.136 113.531-6.737-9.918-13.181-13.597-17.172 8.603-4.11 36.195-37.354 13.074-58.258 25.93-22.002-14.829-71.453 28.831-63.049-20.412 12.967-22.211 70.004 29.725 41.574-17.271-18.137-32.808-66.321-105.466-60.053-143.129 0.791-54.872-56.067-11.442-75.657 6.76-13.178 36.46-4.491 100.187-38.949 118.043-37.401 1.624-69.502 5.023-83.997 46.835-8.723 29.914 9.282 74.447 41.339 81.322 46.925 29.483 63.687-34.527 107.695-35.717 13.664 14.297 50.908 18.843 53.996 34.875-28.875 5.095 36.634 24.279-2.764 35.191-21.735-2.556-35.739-22.537-24.184-39.479-42.119-9.821-43.468 60.952-83.955 38.629-1.029-35.295-66.111-11.443-22.518-4.286 14.978 6.544-24.43 25.508-3.14 22.062 10.458 0.568 45.666 12.906 36.138 21.201 19.605 12.17 36.080-29.145 55.269 0.941 13.854 23.133-5.81 27.404-23.175 15.678-9.79 10.962 17.285 34.638 41.166 44.869 7.959 3.41 15.561 5.268 21.373 4.742 12.029-13.896 34.275-16.303 35.439 1.671-29.791 14.267-62.638 21.804-96.646 21.804-48.811 0-95.235-15.512-133.654-44.195 10.325-4.73 16.186-10.619 6.239-18.148-7.728-23.027-39.085-53.938-66.612-49.562-14.293-24.648-23.706-51.803-27.73-80.264 23.056-7.628 28.372-22.725 23.418-27.775-11.748-10.244-18.968-24.765-22.688-40.661 7.505-45.918 29.086-88.238 62.635-121.788 42.308-42.307 98.559-65.607 158.392-65.607 59.832 0 116.084 23.3 158.392 65.607z" />
<glyph unicode="&#xe602;" d="M426.672 480h-341.33c-46.936 0-85.342-38.407-85.342-85.344v-341.313c0-46.969 38.406-85.343 85.342-85.343l341.33 0.001c46.938 0 85.328 38.373 85.328 85.344v341.311c0 46.937-38.391 85.344-85.328 85.344zM435.296 224h-83.296v-224h-96v224h-46.263v73.282h46.263v47.593c0 64.671 27.896 103.125 103.935 103.125h87.622v-79.285h-71.565c-21.241 0.035-23.876-11.076-23.876-31.756l-0.116-39.677h96l-12.704-73.282z" />
<glyph unicode="&#xe603;" d="M426.671 480h-341.328c-46.937 0-85.343-38.405-85.343-85.345v-341.311c0-46.969 38.406-85.344 85.343-85.344h341.328c46.938 0 85.329 38.375 85.329 85.345v341.31c0 46.94-38.391 85.345-85.329 85.345zM419.026 309.083c0.164-3.671 0.245-7.364 0.245-11.074 0-113.107-84.608-243.534-239.329-243.534-47.502 0-91.717 14.174-128.943 38.459 6.58-0.794 13.276-1.197 20.065-1.197 39.411 0 75.679 13.685 104.467 36.641-36.808 0.69-67.872 25.438-78.577 59.441 5.137-1 10.406-1.537 15.826-1.537 7.672 0 15.103 1.048 22.16 3.004-38.48 7.866-67.475 42.458-67.475 83.928 0 0.361 0 0.719 0.008 1.076 11.34-6.41 24.312-10.26 38.1-10.705-22.571 15.349-37.421 41.546-37.421 71.244 0 15.685 4.147 30.389 11.389 43.029 41.487-51.785 103.468-85.86 173.377-89.431-1.435 6.266-2.179 12.798-2.179 19.507 0 47.269 37.663 85.59 84.115 85.59 24.195 0 46.059-10.393 61.401-27.029 19.16 3.838 37.162 10.96 53.416 20.771-6.281-19.988-19.617-36.761-36.983-47.355 17.013 2.069 33.226 6.67 48.31 13.477-11.273-17.162-25.535-32.238-41.972-44.305z" />
<glyph unicode="&#xe604;" d="M503.885 357.786l-119.654 74.931c-5.299 3.328-11.93 3.328-17.229 0l-111.002-69.529-111.001 69.504c-5.299 3.328-11.929 3.328-17.229 0l-119.654-74.906c-5.018-3.149-8.115-8.858-8.115-14.976v-299.699c0-6.298 3.225-12.135 8.499-15.232s11.699-3.021 16.87 0.231l111.001 69.529 111.001-69.529c5.299-3.328 11.93-3.328 17.255 0l111.002 69.529 111.001-69.529c2.637-1.664 5.632-2.509 8.627-2.509 2.841 0 5.683 0.768 8.243 2.279 5.248 3.098 8.499 8.935 8.499 15.232v299.699c0 6.118-3.098 11.827-8.115 14.976zM119.629 127.923l-86.144-53.939v258.919l86.144 53.939v-258.918zM239.257 73.984l-86.144 53.939v258.918l86.144-53.939v-258.918zM358.887 127.923l-86.118-53.939v258.919l86.118 53.939v-258.918zM478.49 73.984l-86.118 53.939v258.918l86.118-53.939v-258.918z" />
<glyph unicode="&#xe605;" d="M40.806 347.879c12.493-6.733 185.575-99.687 192.025-103.143 6.425-3.456 14.771-5.12 23.168-5.12 8.423 0 16.768 1.664 23.193 5.145 6.451 3.456 179.507 96.41 192 103.143 12.519 6.707 24.346 27.776 1.382 27.776h-433.127c-22.963 0-11.162-21.069 1.357-27.801zM476.493 296.678c-14.208-7.424-188.595-98.585-197.299-103.142s-14.771-5.146-23.193-5.146c-8.397 0-14.464 0.589-23.168 5.146s-183.117 95.744-197.299 103.142c-10.009 5.222-9.933-0.896-9.933-5.606 0-4.711 0-187.776 0-187.776 0-10.752 14.31-24.576 25.395-24.576h410.035c11.111 0 25.37 13.824 25.37 24.55 0 0 0 183.065 0 187.776 0 4.736 0.103 10.854-9.907 5.632z" />
</font></defs></svg>

<?xml version="1.0" standalone="no"?>
<!DOCTYPE svg PUBLIC "-//W3C//DTD SVG 1.1//EN" "http://www.w3.org/Graphics/SVG/1.1/DTD/svg11.dtd" >
<svg xmlns="http://www.w3.org/2000/svg">
<metadata>
This is a custom SVG font generated by IcoMoon.
<iconset grid="16"></iconset>
</metadata>
<defs>
<font id="icomoon" horiz-adv-x="512" >
<font-face units-per-em="512" ascent="480" descent="-32" />
<missing-glyph horiz-adv-x="512" />
<glyph unicode="&#xe000;" d="M 426.671,480.00L 85.343,480.00 C 38.406,480.00,0.00,441.595,0.00,394.655l0.00-341.311 C0.00,6.375, 38.406-32.00, 85.343-32.00l 341.328,0.00 
	C 473.609-32.00, 512.00,6.375, 512.00,53.345L 512.00,394.655 C 512.00,441.595, 473.609,480.00, 426.671,480.00z M 419.026,309.083
	c 0.164-3.671, 0.245-7.364, 0.245-11.074c0.00-113.107-84.608-243.534-239.329-243.534c-47.502,0.00-91.717,14.174-128.943,38.459
	c 6.58-0.794, 13.276-1.197, 20.065-1.197c 39.411,0.00, 75.679,13.685, 104.467,36.641c-36.808,0.69-67.872,25.438-78.577,59.441
	c 5.137-1.00, 10.406-1.537, 15.826-1.537c 7.672,0.00, 15.103,1.048, 22.16,3.004c-38.48,7.866-67.475,42.458-67.475,83.928
	c0.00,0.361,0.00,0.719, 0.008,1.076c 11.34-6.41, 24.312-10.26, 38.10-10.705c-22.571,15.349-37.421,41.546-37.421,71.244
	c0.00,15.685, 4.147,30.389, 11.389,43.029c 41.487-51.785, 103.468-85.86, 173.377-89.431c-1.435,6.266-2.179,12.798-2.179,19.507
	c0.00,47.269, 37.663,85.59, 84.115,85.59c 24.195,0.00, 46.059-10.393, 61.401-27.029c 19.16,3.838, 37.162,10.96, 53.416,20.771
	c-6.281-19.988-19.617-36.761-36.983-47.355c 17.013,2.069, 33.226,6.67, 48.31,13.477C 449.725,336.226, 435.463,321.15, 419.026,309.083
	z"  />
<glyph unicode="&#xe001;" d="M 426.672,480.00L 85.342,480.00 C 38.406,480.00,0.00,441.593,0.00,394.656l0.00-341.313 C0.00,6.374, 38.406-32.00, 85.342-32.00l 341.33,0.001
	c 46.938,0.00, 85.328,38.373, 85.328,85.344L 512.00,394.656 C 512.00,441.593, 473.609,480.00, 426.672,480.00z M 435.296,224.00L 352.00,224.00 l0.00-224.00 l-96.00,0.00 L 256.00,224.00 l-46.263,0.00 l0.00,73.282 L 256.00,297.282 
	l0.00,47.593 C 256.00,409.546, 283.896,448.00, 359.935,448.00l 87.622,0.00 l0.00-79.285 l-71.565,0.00 c-21.241,0.035-23.876-11.076-23.876-31.756L 352.00,297.282l 96.00,0.00 
	L 435.296,224.00z"  />
<glyph unicode="&#xe002;" d="M 437.02,405.019 C 485.371,356.667 512.00,292.379 512.00,223.999 C 512.00,155.619 485.371,91.332 437.02,42.98 C 388.667-5.371 324.38-32.00 256.00-32.00 C 187.62-32.00 123.333-5.371 74.98,42.98 C 26.629,91.332 0.00,155.619 0.00,223.999 C 0.00,292.379 26.627,356.667 74.98,405.019 C 123.333,453.371 187.62,480.00 256.00,480.00 C 324.38,480.00 388.667,453.371 437.02,405.019 Z M 414.392,65.607 C 445.921,97.137 466.885,136.411 475.528,179.138 C 468.791,169.22 462.347,165.541 458.356,187.741 C 454.246,223.936 421.002,200.815 400.098,213.671 C 378.096,198.842 328.645,242.502 337.049,193.259 C 350.016,171.048 407.053,222.984 378.623,175.988 C 360.486,143.18 312.302,70.522 318.57,32.859 C 319.361-22.013 262.503,21.417 242.913,39.619 C 229.735,76.079 238.422,139.806 203.964,157.662 C 166.563,159.286 134.462,162.685 119.967,204.497 C 111.244,234.411 129.249,278.944 161.306,285.819 C 208.231,315.302 224.993,251.292 269.001,250.102 C 282.665,264.399 319.909,268.945 322.997,284.977 C 294.122,290.072 359.631,309.256 320.233,320.168 C 298.498,317.612 284.494,297.631 296.049,280.689 C 253.93,270.868 252.581,341.641 212.094,319.318 C 211.065,284.023 145.983,307.875 189.576,315.032 C 204.554,321.576 165.146,340.54 186.436,337.094 C 196.894,337.662 232.102,350.00 222.574,358.295 C 242.179,370.465 258.654,329.15 277.843,359.236 C 291.697,382.369 272.033,386.64 254.668,374.914 C 244.878,385.876 271.953,409.552 295.834,419.783 C 303.793,423.193 311.395,425.051 317.207,424.525 C 329.236,410.629 351.482,408.222 352.646,426.196 C 322.855,440.463 290.008,448.00 256.00,448.00 C 207.189,448.00 160.765,432.488 122.346,403.805 C 132.671,399.075 138.532,393.186 128.585,385.657 C 120.857,362.63 89.50,331.719 61.973,336.095 C 47.68,311.447 38.267,284.292 34.243,255.831 C 57.299,248.203 62.615,233.106 57.661,228.056 C 45.913,217.812 38.693,203.291 34.973,187.395 C 42.478,141.477 64.059,99.157 97.608,65.607 C 139.916,23.30 196.167,0.00 256.00,0.00 C 315.832,0.00 372.084,23.30 414.392,65.607 Z"  />
<glyph unicode="&#xe003;" d="M 255.936,232.688L 512.00,353.312L 512.00,416.00L0.00,416.00L0.00,353.504 		zM 256.064,161.936L0.00,282.88L0.00,32.00L 512.00,32.00L 512.00,282.496 		z"  />
<glyph unicode="&#x20;" horiz-adv-x="256" />
<glyph class="hidden" unicode="&#xf000;" d="M0,480L 512 -32L0 -32 z" horiz-adv-x="0" />
</font></defs></svg>
